app/assets/images/idv/phone-icon.svg

<svg width="100" height="100" viewBox="0 0 100 100" fill="none" xmlns="http://www.w3.org/2000/svg">
<g filter="url(#filter0_d_279_8400)">
<path d="M50 94C74.3005 94 94 74.3005 94 50C94 25.6995 74.3005 6 50 6C25.6995 6 6 25.6995 6 50C6 74.3005 25.6995 94 50 94Z" fill="white"/>
</g>
<path d="M49.9999 89.6C71.8704 89.6 89.5999 71.8705 89.5999 50C89.5999 28.1295 71.8704 10.4 49.9999 10.4C28.1294 10.4 10.3999 28.1295 10.3999 50C10.3999 71.8705 28.1294 89.6 49.9999 89.6Z" fill="#07819A"/>
<path d="M50.0001 85.64C69.6835 85.64 85.6401 69.6834 85.6401 50C85.6401 30.3166 69.6835 14.36 50.0001 14.36C30.3167 14.36 14.3601 30.3166 14.3601 50C14.3601 69.6834 30.3167 85.64 50.0001 85.64Z" fill="white"/>
<mask id="mask0_279_8400" style="mask-type:alpha" maskUnits="userSpaceOnUse" x="14" y="14" width="72" height="72">
<path d="M50.0001 85.64C69.6835 85.64 85.6401 69.6834 85.6401 50C85.6401 30.3166 69.6835 14.36 50.0001 14.36C30.3167 14.36 14.3601 30.3166 14.3601 50C14.3601 69.6834 30.3167 85.64 50.0001 85.64Z" fill="white"/>
</mask>
<g mask="url(#mask0_279_8400)">
<path d="M33.5113 26.3481C33.2347 26.3481 33.0084 26.1218 33.0084 25.8452V17.6009C33.0084 17.3243 33.2347 17.098 33.5113 17.098C33.7879 17.098 34.0141 17.3243 34.0141 17.6009V25.8452C34.0141 26.1218 33.7879 26.3481 33.5113 26.3481Z" fill="#F5D60C"/>
<path d="M30.3107 27.673C30.1825 27.673 30.0543 27.6228 29.9562 27.5247L24.1256 21.6941C23.9295 21.498 23.9295 21.1786 24.1256 20.9825C24.3217 20.7864 24.641 20.7864 24.8371 20.9825L30.6678 26.8132C30.8639 27.0093 30.8639 27.3286 30.6678 27.5247C30.5697 27.6228 30.4415 27.673 30.3133 27.673H30.3107Z" fill="#F5D60C"/>
<path d="M28.9857 30.8738H20.7414C20.4648 30.8738 20.2385 30.6475 20.2385 30.3709C20.2385 30.0943 20.4648 29.868 20.7414 29.868H28.9857C29.2623 29.868 29.4886 30.0943 29.4886 30.3709C29.4886 30.6475 29.2623 30.8738 28.9857 30.8738Z" fill="#F5D60C"/>
<path d="M24.4823 39.9025C24.3541 39.9025 24.2259 39.8523 24.1278 39.7542C23.9317 39.5581 23.9317 39.2388 24.1278 39.0427L29.9584 33.212C30.1545 33.0159 30.4739 33.0159 30.67 33.212C30.8661 33.4081 30.8661 33.7275 30.67 33.9236L24.8393 39.7542C24.7413 39.8523 24.6131 39.9025 24.4848 39.9025H24.4823Z" fill="#F5D60C"/>
<path d="M33.5114 43.6439C33.2348 43.6439 33.0085 43.4176 33.0085 43.141V34.8967C33.0085 34.6201 33.2348 34.3938 33.5114 34.3938C33.788 34.3938 34.0143 34.6201 34.0143 34.8967V43.141C34.0143 43.4176 33.788 43.6439 33.5114 43.6439Z" fill="#F5D60C"/>
<path d="M42.5402 39.9025C42.412 39.9025 42.2838 39.8523 42.1857 39.7542L36.3551 33.9236C36.159 33.7275 36.159 33.4081 36.3551 33.212C36.5512 33.0159 36.8705 33.0159 37.0666 33.212L42.8973 39.0427C43.0934 39.2388 43.0934 39.5581 42.8973 39.7542C42.7992 39.8523 42.671 39.9025 42.5428 39.9025H42.5402Z" fill="#F5D60C"/>
<path d="M46.2816 30.8738H38.0373C37.7607 30.8738 37.5344 30.6475 37.5344 30.3709C37.5344 30.0943 37.7607 29.868 38.0373 29.868H46.2816C46.5582 29.868 46.7845 30.0943 46.7845 30.3709C46.7845 30.6475 46.5582 30.8738 46.2816 30.8738Z" fill="#F5D60C"/>
<path d="M36.712 27.673C36.5838 27.673 36.4556 27.6228 36.3575 27.5247C36.1614 27.3286 36.1614 27.0093 36.3575 26.8132L42.1882 20.9825C42.3843 20.7864 42.7036 20.7864 42.8997 20.9825C43.0958 21.1786 43.0958 21.498 42.8997 21.6941L37.0691 27.5247C36.971 27.6228 36.8428 27.673 36.7146 27.673H36.712Z" fill="#F5D60C"/>
<path d="M30.9141 24.6032C30.7154 24.6032 30.5294 24.485 30.4489 24.2914L29.0258 20.8569C28.9202 20.6004 29.0409 20.3063 29.2974 20.2007C29.5538 20.0951 29.848 20.2158 29.9536 20.4722L31.3767 23.9067C31.4823 24.1632 31.3616 24.4574 31.1052 24.563C31.0423 24.5881 30.9769 24.6007 30.9141 24.6007V24.6032Z" fill="#CAB32D"/>
<path d="M27.2384 28.2766C27.1755 28.2766 27.1102 28.264 27.0473 28.2389L23.6128 26.8158C23.3563 26.7102 23.2331 26.416 23.3413 26.1596C23.4469 25.9031 23.741 25.7799 23.9975 25.888L27.432 27.3111C27.6885 27.4167 27.8117 27.7109 27.7035 27.9673C27.6231 28.1609 27.437 28.2791 27.2384 28.2791V28.2766Z" fill="#CAB32D"/>
<path d="M23.8039 34.8941C23.6052 34.8941 23.4192 34.776 23.3387 34.5824C23.2331 34.3259 23.3538 34.0317 23.6103 33.9261L27.0448 32.503C27.3012 32.3974 27.5954 32.5181 27.701 32.7746C27.8066 33.031 27.6859 33.3252 27.4295 33.4308L23.995 34.8539C23.9321 34.879 23.8667 34.8916 23.8039 34.8916V34.8941Z" fill="#CAB32D"/>
<path d="M29.4911 40.5815C29.4283 40.5815 29.3629 40.5689 29.3001 40.5438C29.0436 40.4382 28.9204 40.144 29.0285 39.8876L30.4516 36.4531C30.5572 36.1966 30.8514 36.0759 31.1078 36.1815C31.3643 36.2871 31.4875 36.5813 31.3794 36.8377L29.9563 40.2723C29.8758 40.4659 29.6898 40.584 29.4911 40.584V40.5815Z" fill="#CAB32D"/>
<path d="M37.5314 40.5815C37.3328 40.5815 37.1467 40.4633 37.0663 40.2697L35.6432 36.8352C35.5376 36.5787 35.6583 36.2845 35.9147 36.1789C36.1712 36.0733 36.4653 36.194 36.5709 36.4505L37.994 39.885C38.0996 40.1415 37.9789 40.4356 37.7225 40.5412C37.6596 40.5664 37.5943 40.5789 37.5314 40.5789V40.5815Z" fill="#CAB32D"/>
<path d="M43.219 34.8942C43.1562 34.8942 43.0908 34.8816 43.0279 34.8565L39.5934 33.4334C39.337 33.3278 39.2163 33.0336 39.3219 32.7771C39.4275 32.5207 39.7217 32.4 39.9781 32.5056L43.4126 33.9287C43.6691 34.0343 43.7898 34.3285 43.6842 34.5849C43.6037 34.7785 43.4177 34.8967 43.219 34.8967V34.8942Z" fill="#CAB32D"/>
<path d="M39.7843 28.2766C39.5857 28.2766 39.3997 28.1584 39.3192 27.9648C39.2136 27.7083 39.3343 27.4142 39.5907 27.3086L43.0253 25.8855C43.2817 25.7799 43.5759 25.9006 43.6815 26.157C43.7871 26.4135 43.6664 26.7077 43.4099 26.8133L39.9754 28.2363C39.9126 28.2615 39.8472 28.2741 39.7843 28.2741V28.2766Z" fill="#CAB32D"/>
<path d="M36.1085 24.6032C36.0456 24.6032 35.9803 24.5907 35.9174 24.5655C35.661 24.4599 35.5403 24.1658 35.6459 23.9093L37.0689 20.4748C37.1745 20.2183 37.4687 20.0976 37.7252 20.2032C37.9816 20.3088 38.1023 20.603 37.9967 20.8595L36.5736 24.294C36.4932 24.4876 36.3071 24.6058 36.1085 24.6058V24.6032Z" fill="#CAB32D"/>
<path d="M47.2343 20.9952C47.2343 19.4665 45.9973 18.2295 44.4686 18.2295C45.9973 18.2295 47.2343 16.9924 47.2343 15.4637C47.2343 16.9924 48.4714 18.2295 50.0001 18.2295C48.4714 18.2295 47.2343 19.4665 47.2343 20.9952Z" fill="#F5D60C"/>
<path d="M20.9829 49.3689C20.9829 47.4253 19.4064 45.8489 17.4629 45.8489C19.4064 45.8489 20.9829 44.2724 20.9829 42.3289C20.9829 44.2724 22.5593 45.8489 24.5029 45.8489C22.5593 45.8489 20.9829 47.4253 20.9829 49.3689Z" fill="#F5D60C"/>
<path d="M64.0804 26.6172H35.9204C32.5878 26.6172 29.8861 29.3188 29.8861 32.6515V90.9829C29.8861 94.3155 32.5878 97.0172 35.9204 97.0172H64.0804C67.413 97.0172 70.1147 94.3155 70.1147 90.9829V32.6515C70.1147 29.3188 67.413 26.6172 64.0804 26.6172Z" fill="#007187"/>
<path d="M64.08 98.0229H35.92C32.0379 98.0229 28.88 94.8649 28.88 90.9829V32.6515C28.88 28.7694 32.0379 25.6115 35.92 25.6115H64.08C67.9621 25.6115 71.12 28.7694 71.12 32.6515V90.9829C71.12 94.8649 67.9621 98.0229 64.08 98.0229ZM35.92 27.6229C33.1467 27.6229 30.8914 29.8782 30.8914 32.6515V90.9829C30.8914 93.7561 33.1467 96.0115 35.92 96.0115H64.08C66.8533 96.0115 69.1086 93.7561 69.1086 90.9829V32.6515C69.1086 29.8782 66.8533 27.6229 64.08 27.6229H35.92Z" fill="#1B1B1B"/>
<path d="M47.4857 29.6343H35.92C34.2537 29.6343 32.9028 30.9851 32.9028 32.6514V44.2171C32.9028 45.8835 34.2537 47.2343 35.92 47.2343H47.4857C49.152 47.2343 50.5028 45.8835 50.5028 44.2171V32.6514C50.5028 30.9851 49.152 29.6343 47.4857 29.6343Z" fill="#07819A"/>
<path d="M47.4858 48.24H35.9201C33.7025 48.24 31.8972 46.4347 31.8972 44.2171V32.6514C31.8972 30.4338 33.7025 28.6285 35.9201 28.6285H47.4858C49.7034 28.6285 51.5086 30.4338 51.5086 32.6514V44.2171C51.5086 46.4347 49.7034 48.24 47.4858 48.24ZM35.9201 30.64C34.8113 30.64 33.9086 31.5426 33.9086 32.6514V44.2171C33.9086 45.3259 34.8113 46.2285 35.9201 46.2285H47.4858C48.5946 46.2285 49.4972 45.3259 49.4972 44.2171V32.6514C49.4972 31.5426 48.5946 30.64 47.4858 30.64H35.9201Z" fill="#1B1B1B"/>
<path d="M45.7258 36.1715C46.6978 36.1715 47.4858 35.3835 47.4858 34.4115C47.4858 33.4395 46.6978 32.6515 45.7258 32.6515C44.7538 32.6515 43.9658 33.4395 43.9658 34.4115C43.9658 35.3835 44.7538 36.1715 45.7258 36.1715Z" fill="white"/>
<path d="M45.7258 36.5486C44.5466 36.5486 43.5886 35.5906 43.5886 34.4114C43.5886 33.2322 44.5466 32.2743 45.7258 32.2743C46.905 32.2743 47.8629 33.2322 47.8629 34.4114C47.8629 35.5906 46.905 36.5486 45.7258 36.5486ZM45.7258 33.0286C44.9639 33.0286 44.3429 33.6496 44.3429 34.4114C44.3429 35.1733 44.9639 35.7943 45.7258 35.7943C46.4876 35.7943 47.1086 35.1733 47.1086 34.4114C47.1086 33.6496 46.4876 33.0286 45.7258 33.0286Z" fill="#1B1B1B"/>
<path d="M37.6798 37.1771C39.2072 37.1771 40.4455 35.9388 40.4455 34.4113C40.4455 32.8839 39.2072 31.6456 37.6798 31.6456C36.1523 31.6456 34.9141 32.8839 34.9141 34.4113C34.9141 35.9388 36.1523 37.1771 37.6798 37.1771Z" fill="#939598"/>
<path d="M37.6799 37.68C35.8772 37.68 34.4114 36.2141 34.4114 34.4114C34.4114 32.6087 35.8772 31.1428 37.6799 31.1428C39.4827 31.1428 40.9485 32.6087 40.9485 34.4114C40.9485 36.2141 39.4827 37.68 37.6799 37.68ZM37.6799 32.1485C36.4329 32.1485 35.4171 33.1643 35.4171 34.4114C35.4171 35.6585 36.4329 36.6743 37.6799 36.6743C38.927 36.6743 39.9428 35.6585 39.9428 34.4114C39.9428 33.1643 38.927 32.1485 37.6799 32.1485Z" fill="#1B1B1B"/>
<path d="M37.68 43.7144C38.3743 43.7144 38.9371 43.1515 38.9371 42.4572C38.9371 41.7629 38.3743 41.2001 37.68 41.2001C36.9857 41.2001 36.4229 41.7629 36.4229 42.4572C36.4229 43.1515 36.9857 43.7144 37.68 43.7144Z" fill="white"/>
<path d="M37.6802 44.0914C36.7801 44.0914 36.0459 43.3573 36.0459 42.4572C36.0459 41.557 36.7801 40.8229 37.6802 40.8229C38.5803 40.8229 39.3145 41.557 39.3145 42.4572C39.3145 43.3573 38.5803 44.0914 37.6802 44.0914ZM37.6802 41.5772C37.1949 41.5772 36.8002 41.9719 36.8002 42.4572C36.8002 42.9424 37.1949 43.3372 37.6802 43.3372C38.1654 43.3372 38.5602 42.9424 38.5602 42.4572C38.5602 41.9719 38.1654 41.5772 37.6802 41.5772Z" fill="#1B1B1B"/>
<path d="M45.7257 45.2227C47.2531 45.2227 48.4914 43.9845 48.4914 42.457C48.4914 40.9295 47.2531 39.6913 45.7257 39.6913C44.1982 39.6913 42.96 40.9295 42.96 42.457C42.96 43.9845 44.1982 45.2227 45.7257 45.2227Z" fill="#939598"/>
<path d="M45.7258 45.7256C43.9231 45.7256 42.4573 44.2598 42.4573 42.457C42.4573 40.6543 43.9231 39.1885 45.7258 39.1885C47.5286 39.1885 48.9944 40.6543 48.9944 42.457C48.9944 44.2598 47.5286 45.7256 45.7258 45.7256ZM45.7258 40.1942C44.4788 40.1942 43.463 41.21 43.463 42.457C43.463 43.7041 44.4788 44.7199 45.7258 44.7199C46.9729 44.7199 47.9887 43.7041 47.9887 42.457C47.9887 41.21 46.9729 40.1942 45.7258 40.1942Z" fill="#1B1B1B"/>
<path d="M70.1138 47.2344H70.6166C70.8932 47.2344 71.1195 47.4607 71.1195 47.7372V51.7601C71.1195 52.0367 70.8932 52.2629 70.6166 52.2629H70.1138V47.2344Z" fill="#BCBEC0"/>
<path d="M70.6171 52.64H69.7371V46.8572H70.6171C71.1023 46.8572 71.4971 47.2519 71.4971 47.7372V51.76C71.4971 52.2453 71.1023 52.64 70.6171 52.64ZM70.4913 51.8857H70.6171C70.6875 51.8857 70.7428 51.8304 70.7428 51.76V47.7372C70.7428 47.6668 70.6875 47.6115 70.6171 47.6115H70.4913V51.8857Z" fill="#1B1B1B"/>
<path d="M70.1138 53.5201H70.6166C70.8932 53.5201 71.1195 53.7464 71.1195 54.023V58.0459C71.1195 58.3224 70.8932 58.5487 70.6166 58.5487H70.1138V53.5201Z" fill="#BCBEC0"/>
<path d="M70.6171 58.9258H69.7371V53.1429H70.6171C71.1023 53.1429 71.4971 53.5377 71.4971 54.0229V58.0458C71.4971 58.5311 71.1023 58.9258 70.6171 58.9258ZM70.4913 58.1715H70.6171C70.6875 58.1715 70.7428 58.1162 70.7428 58.0458V54.0229C70.7428 53.9525 70.6875 53.8972 70.6171 53.8972H70.4913V58.1715Z" fill="#1B1B1B"/>
<path d="M29.886 57.2915H29.3831C29.1066 57.2915 28.8803 57.0652 28.8803 56.7886V47.7372C28.8803 47.4606 29.1066 47.2344 29.3831 47.2344H29.886V57.2915Z" fill="#BCBEC0"/>
<path d="M30.2627 57.6686H29.3827C28.8974 57.6686 28.5027 57.2739 28.5027 56.7886V47.7372C28.5027 47.2519 28.8974 46.8572 29.3827 46.8572H30.2627V57.6686ZM29.3827 47.6115C29.3123 47.6115 29.257 47.6668 29.257 47.7372V56.7886C29.257 56.859 29.3123 56.9143 29.3827 56.9143H29.5084V47.6115H29.3827Z" fill="#1B1B1B"/>
</g>
<defs>
<filter id="filter0_d_279_8400" x="0" y="0" width="100" height="100" filterUnits="userSpaceOnUse" color-interpolation-filters="sRGB">
<feFlood flood-opacity="0" result="BackgroundImageFix"/>
<feColorMatrix in="SourceAlpha" type="matrix" values="0 0 0 0 0 0 0 0 0 0 0 0 0 0 0 0 0 0 127 0" result="hardAlpha"/>
<feOffset/>
<feGaussianBlur stdDeviation="3"/>
<feComposite in2="hardAlpha" operator="out"/>
<feColorMatrix type="matrix" values="0 0 0 0 0 0 0 0 0 0 0 0 0 0 0 0 0 0 0.24 0"/>
<feBlend mode="normal" in2="BackgroundImageFix" result="effect1_dropShadow_279_8400"/>
<feBlend mode="normal" in="SourceGraphic" in2="effect1_dropShadow_279_8400" result="shape"/>
</filter>
</defs>
</svg>

<svg width="100" height="100" viewBox="0 0 100 100" fill="none" xmlns="http://www.w3.org/2000/svg"><g filter="url(#a)"><path d="M50 94c24.3 0 44-19.7 44-44S74.3 6 50 6 6 25.7 6 50s19.7 44 44 44Z" fill="#fff"/></g><path d="M50 89.6c21.87 0 39.6-17.73 39.6-39.6S71.87 10.4 50 10.4 10.4 28.13 10.4 50 28.13 89.6 50 89.6Z" fill="#07819A"/><path d="M50 85.64c19.683 0 35.64-15.957 35.64-35.64S69.683 14.36 50 14.36 14.36 30.317 14.36 50 30.317 85.64 50 85.64Z" fill="#fff"/><mask id="b" style="mask-type:alpha" maskUnits="userSpaceOnUse" x="14" y="14" width="72" height="72"><path d="M50 85.64c19.683 0 35.64-15.957 35.64-35.64S69.683 14.36 50 14.36 14.36 30.317 14.36 50 30.317 85.64 50 85.64Z" fill="#fff"/></mask><g mask="url(#b)"><path d="M33.511 26.348a.504.504 0 0 1-.503-.503v-8.244a.504.504 0 0 1 1.006 0v8.244a.504.504 0 0 1-.503.503Zm-3.201 1.325a.501.501 0 0 1-.354-.148l-5.83-5.83a.504.504 0 0 1 .711-.712l5.83 5.83a.504.504 0 0 1-.354.86h-.002Zm-1.324 3.201H20.74a.504.504 0 0 1-.503-.503c0-.277.227-.503.503-.503h8.245c.276 0 .503.226.503.503a.504.504 0 0 1-.503.503Zm-4.504 9.029a.504.504 0 0 1-.354-.86l5.83-5.831a.504.504 0 0 1 .712.712l-5.83 5.83a.5.5 0 0 1-.355.149h-.003Zm9.029 3.741a.504.504 0 0 1-.503-.503v-8.244a.504.504 0 0 1 1.006 0v8.244a.504.504 0 0 1-.503.503Zm9.029-3.741a.501.501 0 0 1-.354-.149l-5.83-5.83a.504.504 0 0 1 .71-.712l5.831 5.83a.504.504 0 0 1-.354.86h-.003Zm3.742-9.029h-8.245a.504.504 0 0 1-.503-.503c0-.277.227-.503.503-.503h8.245c.276 0 .503.226.503.503a.504.504 0 0 1-.503.503Zm-9.57-3.201a.504.504 0 0 1-.355-.86l5.831-5.83a.504.504 0 0 1 .712.711l-5.83 5.83a.501.501 0 0 1-.355.149h-.003Z" fill="#F5D60C"/><path d="M30.914 24.603a.504.504 0 0 1-.465-.312l-1.423-3.434a.502.502 0 1 1 .928-.385l1.423 3.435a.502.502 0 0 1-.463.694v.002Zm-3.676 3.674a.518.518 0 0 1-.19-.038l-3.435-1.423a.5.5 0 0 1-.272-.656.5.5 0 0 1 .656-.272l3.435 1.423a.504.504 0 0 1-.194.968v-.002Zm-3.434 6.617a.504.504 0 0 1-.194-.968l3.435-1.423a.502.502 0 0 1 .384.928l-3.434 1.423a.518.518 0 0 1-.191.038v.002Zm5.687 5.687a.5.5 0 0 1-.463-.694l1.424-3.434a.502.502 0 1 1 .927.385l-1.423 3.434a.504.504 0 0 1-.465.312v-.003Zm8.04 0a.504.504 0 0 1-.465-.311l-1.423-3.435a.502.502 0 0 1 .928-.385l1.423 3.435a.502.502 0 0 1-.463.694v.002Zm5.688-5.687a.518.518 0 0 1-.191-.038l-3.435-1.423a.502.502 0 0 1 .385-.927l3.435 1.423a.502.502 0 0 1-.194.968v-.003Zm-3.435-6.617a.504.504 0 0 1-.193-.968l3.434-1.424a.502.502 0 1 1 .385.928l-3.435 1.423a.516.516 0 0 1-.19.038v.003Zm-3.676-3.674a.502.502 0 0 1-.463-.694l1.424-3.434a.502.502 0 1 1 .928.384l-1.423 3.435a.504.504 0 0 1-.465.312v-.003Z" fill="#CAB32D"/><path d="M47.234 20.995a2.764 2.764 0 0 0-2.765-2.765 2.764 2.764 0 0 0 2.765-2.766A2.764 2.764 0 0 0 50 18.23a2.764 2.764 0 0 0-2.766 2.765ZM20.983 49.369a3.52 3.52 0 0 0-3.52-3.52 3.52 3.52 0 0 0 3.52-3.52 3.52 3.52 0 0 0 3.52 3.52 3.52 3.52 0 0 0-3.52 3.52Z" fill="#F5D60C"/><path d="M64.08 26.617H35.92a6.034 6.034 0 0 0-6.034 6.034v58.332a6.034 6.034 0 0 0 6.034 6.034h28.16a6.034 6.034 0 0 0 6.035-6.034V32.65a6.034 6.034 0 0 0-6.035-6.034Z" fill="#007187"/><path d="M64.08 98.023H35.92a7.048 7.048 0 0 1-7.04-7.04V32.65a7.048 7.048 0 0 1 7.04-7.04h28.16a7.048 7.048 0 0 1 7.04 7.04v58.332a7.048 7.048 0 0 1-7.04 7.04Zm-28.16-70.4a5.034 5.034 0 0 0-5.029 5.028v58.332a5.034 5.034 0 0 0 5.029 5.028h28.16a5.034 5.034 0 0 0 5.029-5.028V32.65a5.034 5.034 0 0 0-5.029-5.028H35.92Z" fill="#1B1B1B"/><path d="M47.486 29.634H35.92a3.017 3.017 0 0 0-3.017 3.017v11.566a3.017 3.017 0 0 0 3.017 3.017h11.566a3.017 3.017 0 0 0 3.017-3.017V32.651a3.017 3.017 0 0 0-3.017-3.017Z" fill="#07819A"/><path d="M47.486 48.24H35.92a4.028 4.028 0 0 1-4.023-4.023V32.651a4.028 4.028 0 0 1 4.023-4.023h11.566a4.028 4.028 0 0 1 4.023 4.023v11.566a4.028 4.028 0 0 1-4.023 4.023ZM35.92 30.64a2.014 2.014 0 0 0-2.011 2.011v11.566c0 1.109.902 2.011 2.011 2.011h11.566a2.014 2.014 0 0 0 2.011-2.01V32.65a2.014 2.014 0 0 0-2.011-2.011H35.92Z" fill="#1B1B1B"/><path d="M45.726 36.172a1.76 1.76 0 1 0 0-3.52 1.76 1.76 0 0 0 0 3.52Z" fill="#fff"/><path d="M45.726 36.549a2.139 2.139 0 0 1-2.137-2.138c0-1.179.958-2.137 2.137-2.137a2.139 2.139 0 0 1 0 4.275Zm0-3.52c-.762 0-1.383.62-1.383 1.382 0 .762.62 1.383 1.383 1.383.762 0 1.383-.62 1.383-1.383 0-.761-.621-1.382-1.383-1.382Z" fill="#1B1B1B"/><path d="M37.68 37.177a2.766 2.766 0 1 0 0-5.531 2.766 2.766 0 0 0 0 5.531Z" fill="#939598"/><path d="M37.68 37.68a3.272 3.272 0 0 1-3.269-3.269 3.272 3.272 0 0 1 3.269-3.268 3.272 3.272 0 0 1 3.269 3.268 3.272 3.272 0 0 1-3.27 3.269Zm0-5.532a2.266 2.266 0 0 0-2.263 2.263 2.266 2.266 0 0 0 2.263 2.263 2.266 2.266 0 0 0 2.263-2.263 2.266 2.266 0 0 0-2.263-2.263Z" fill="#1B1B1B"/><path d="M37.68 43.714a1.257 1.257 0 1 0 0-2.514 1.257 1.257 0 0 0 0 2.514Z" fill="#fff"/><path d="M37.68 44.091c-.9 0-1.634-.734-1.634-1.634 0-.9.734-1.634 1.634-1.634.9 0 1.635.734 1.635 1.634 0 .9-.735 1.634-1.635 1.634Zm0-2.514a.88.88 0 0 0 0 1.76.881.881 0 0 0 0-1.76Z" fill="#1B1B1B"/><path d="M45.726 45.223a2.766 2.766 0 1 0 0-5.532 2.766 2.766 0 0 0 0 5.532Z" fill="#939598"/><path d="M45.726 45.726a3.272 3.272 0 0 1-3.269-3.269 3.272 3.272 0 0 1 3.269-3.269 3.272 3.272 0 0 1 3.268 3.269 3.272 3.272 0 0 1-3.268 3.269Zm0-5.532a2.266 2.266 0 0 0-2.263 2.263 2.266 2.266 0 0 0 2.263 2.263 2.266 2.266 0 0 0 2.263-2.263 2.266 2.266 0 0 0-2.263-2.263Z" fill="#1B1B1B"/><path d="M70.114 47.234h.503c.276 0 .502.227.502.503v4.023a.504.504 0 0 1-.502.503h-.503v-5.029Z" fill="#BCBEC0"/><path d="M70.617 52.64h-.88v-5.783h.88c.485 0 .88.395.88.88v4.023c0 .485-.395.88-.88.88Zm-.126-.754h.126c.07 0 .126-.056.126-.126v-4.023a.124.124 0 0 0-.126-.126h-.126v4.275Z" fill="#1B1B1B"/><path d="M70.114 53.52h.503c.276 0 .502.226.502.503v4.023a.504.504 0 0 1-.502.503h-.503V53.52Z" fill="#BCBEC0"/><path d="M70.617 58.926h-.88v-5.783h.88c.485 0 .88.395.88.88v4.023c0 .485-.395.88-.88.88Zm-.126-.755h.126c.07 0 .126-.055.126-.125v-4.023a.124.124 0 0 0-.126-.126h-.126v4.275Z" fill="#1B1B1B"/><path d="M29.886 57.291h-.503a.504.504 0 0 1-.503-.502v-9.052c0-.276.227-.503.503-.503h.503v10.057Z" fill="#BCBEC0"/><path d="M30.263 57.669h-.88a.88.88 0 0 1-.88-.88v-9.052a.88.88 0 0 1 .88-.88h.88V57.67Zm-.88-10.057a.124.124 0 0 0-.126.125v9.052c0 .07.055.125.126.125h.125v-9.303h-.125Z" fill="#1B1B1B"/></g><defs><filter id="a" x="0" y="0" width="100" height="100" filterUnits="userSpaceOnUse" color-interpolation-filters="sRGB"><feFlood flood-opacity="0" result="BackgroundImageFix"/><feColorMatrix in="SourceAlpha" values="0 0 0 0 0 0 0 0 0 0 0 0 0 0 0 0 0 0 127 0" result="hardAlpha"/><feOffset/><feGaussianBlur stdDeviation="3"/><feComposite in2="hardAlpha" operator="out"/><feColorMatrix values="0 0 0 0 0 0 0 0 0 0 0 0 0 0 0 0 0 0 0.24 0"/><feBlend in2="BackgroundImageFix" result="effect1_dropShadow_279_8400"/><feBlend in="SourceGraphic" in2="effect1_dropShadow_279_8400" result="shape"/></filter></defs></svg>
